X: 2161
T: Auld Lang Syne
R: reel
M: 4/4
K: Gmajor
D2|G3F G2B2|A3G A2BA|G3G B2d2|e6 e2|
d3B B2G2|A3G A2 BA|G3E E2D2|G6||
e2|d3B B2G2|A3G A2e2|d3B B2d2|e6 g2|
d3B B2G2|A3G A2 BA|G3E E2D2|G6||

